frontend/src/assets/assets_frontend/General_physician.svg

<svg id="eegnw1huEio1" xmlns="http://www.w3.org/2000/svg" xmlns:xlink="http://www.w3.org/1999/xlink" viewBox="0 0 126 126" shape-rendering="geometricPrecision" text-rendering="geometricPrecision" project-id="f5f268a9a44245b3b9b473843961d73a" export-id="a862555fdfc54c7f913862af6bb0e446" cached="false"><defs><linearGradient id="eegnw1huEio2-fill" x1="0" y1="-62.8325" x2="0" y2="62.8325" spreadMethod="pad" gradientUnits="userSpaceOnUse" gradientTransform="translate(0 0)"><stop id="eegnw1huEio2-fill-0" offset="0%" stop-color="#afc1dc"/><stop id="eegnw1huEio2-fill-1" offset="100%" stop-color="#e2e5ed"/></linearGradient></defs><circle r="62.8325" transform="translate(62.8325 62.8325)" fill="url(#eegnw1huEio2-fill)"/><path d="M47.2477,48.2327l.5388-.0462c.204-.0231.3887-.0962.5427-.204l-.0039.0039c.5158,1.7782,1.147,3.6487,1.936,5.6078c1.0123,2.5633,2.0091,4.6686,3.1253,6.7008l-.154-.3079c-.0924,1.401-.204,2.8404-.3502,4.2337-.0693.8583-.2387,1.6588-.4965,2.4132l.0192-.0693c-.0462.0193-.1116,8.0056-.1116,8.0056.0038,5.2075,3.6102,9.5682,8.4597,10.7268l.077.0153c.2194-.558.7505-.9468,1.3741-.9468h2.2092c.6197.0077,1.1508.3926,1.3702.9353l.0038.0115c4.9381-1.1623,8.5598-5.523,8.5791-10.7344c0,0-.1347-7.9555-.204-8.0094-.2117-.6736-.381-1.4664-.4696-2.2824l-.0038-.0577c-.1347-1.401-.2232-2.8058-.3502-4.2337.9506-1.7166,1.9475-3.8181,2.825-5.985l.1463-.408c.789-1.959,1.4009-3.8257,1.9359-5.6077.1501.1078.3349.1809.535.204h.0039l.5426.0462c.6543.0692,1.2317-.4696,1.2856-1.3048l.585-7.4321c0-.0039,0-.0077,0-.0077c0-.6274-.4696-1.1431-1.0738-1.2201h-.0077-.0655c.1501-1.0815.2348-2.3285.2348-3.5948c0-2.7635-.408-5.4346-1.1662-7.9479l.05.1963c-2.2207-4.8726-6.6238-8.4097-11.9275-9.3988l-.1001-.0154c-1.1392-.2348-2.4671-.3926-3.8219-.4311h-.0346-.0462c-1.3817.0269-2.7096.1809-3.9951.4542l.1386-.0231c-5.3961,1.0161-9.7915,4.5531-11.9853,9.3103l-.0424.1039c-.7159,2.3093-1.1277,4.965-1.1277,7.7131c0,1.2817.0885,2.5441.2617,3.7757l-.0154-.1424c-.6119.0693-1.0853.5812-1.0853,1.2047v.0269l.585,7.4321c.0539.8545.6389,1.3702,1.2701,1.301l.0039-.0116Z" fill="#f7dece"/><path d="M104.547,97.4219c-.269-11.7005-1.439-14.3485-2.071-16.1421-.25-.7197-.454-5.5846-8.4901-8.7407-4.9265-1.9398-11.2848-1.9783-16.6655-4.253v6.3275c-.0115,6.8048-4.8842,12.4664-11.331,13.7019l-.0885.0154c-.1193.7005-.7197,1.2239-1.4394,1.2316h-.0693v4.7726c0,4.6648,3.7795,8.4439,8.4443,8.4439s8.4444-3.7791,8.4444-8.4439v-3.3331c-2.3401-.3503-4.1144-2.344-4.1144-4.7533c0-2.6519,2.1515-4.8034,4.8033-4.8034s4.8034,2.1515,4.8034,4.8034c0,2.1014-1.351,3.8873-3.2292,4.5416l-.0346.0116v3.5332.1809c0,5.896-4.7803,10.677-10.6767,10.677s-10.6767-4.781-10.6767-10.677c0-.0655,0-.127,0-.1925v.0077-4.8149c-.6851-.0462-1.2393-.5619-1.3471-1.2239v-.0077c-6.5045-1.2663-11.3541-6.9087-11.3695-13.6865v-6.3775c-5.4037,2.3209-11.8005,2.367-16.754,4.3107-8.0595,3.1522-8.2442,8.0056-8.4905,8.7369-.6158,1.8012-1.8013,4.4377-2.0707,16.1459-.0462,1.5395,0,3.8988,4.6417,5.9618c10.1071,3.964,23.1277,5.196,35.9636,6.081h1.2316c12.8628-.877,25.8642-2.105,35.9636-6.081c4.6223-2.051,4.6643-4.3992,4.6223-5.9541ZM48.0423,92.6493h-4.7957v4.8149h-3.4254v-4.7995h-4.7957v-3.4255h4.7957v-4.7956h3.4254v4.7956h4.7957v3.4101Z" fill="#c82333"/><path d="M84.5673,86.2074c0-1.4318-1.1585-2.5941-2.5903-2.5941s-2.5903,1.1585-2.5903,2.5903s1.1585,2.5902,2.5903,2.5902c1.4279,0,2.5864-1.1585,2.5903-2.5864Z"/></svg>

<svg width="126" height="126" viewBox="0 0 126 126" fill="none" xmlns="http://www.w3.org/2000/svg">
<circle cx="62.8325" cy="62.8325" r="62.8325" fill="url(#paint0_linear_4741_2362)"/>
<path d="M47.2477 48.2327L47.7865 48.1865C47.9905 48.1634 48.1752 48.0903 48.3292 47.9825L48.3253 47.9864C48.8411 49.7646 49.4723 51.6351 50.2613 53.5942C51.2736 56.1575 52.2704 58.2628 53.3866 60.295L53.2326 59.9871C53.1402 61.3881 53.0286 62.8275 52.8824 64.2208C52.8131 65.0791 52.6437 65.8796 52.3859 66.634L52.4051 66.5647C52.3589 66.584 52.2935 74.5703 52.2935 74.5703C52.2973 79.7778 55.9037 84.1385 60.7532 85.2971L60.8302 85.3124C61.0496 84.7544 61.5807 84.3656 62.2043 84.3656H64.4135C65.0332 84.3733 65.5643 84.7582 65.7837 85.3009L65.7875 85.3124C70.7256 84.1501 74.3473 79.7894 74.3666 74.578C74.3666 74.578 74.2319 66.6225 74.1626 66.5686C73.9509 65.895 73.7816 65.1022 73.693 64.2862L73.6892 64.2285C73.5545 62.8275 73.466 61.4227 73.339 59.9948C74.2896 58.2782 75.2865 56.1767 76.164 54.0098L76.3103 53.6018C77.0993 51.6428 77.7112 49.7761 78.2462 47.9941C78.3963 48.1019 78.5811 48.175 78.7812 48.1981H78.7851L79.3277 48.2443C79.982 48.3135 80.5594 47.7747 80.6133 46.9395L81.1983 39.5074C81.1983 39.5035 81.1983 39.4997 81.1983 39.4997C81.1983 38.8723 80.7287 38.3566 80.1245 38.2796H80.1168H80.0513C80.2014 37.1981 80.2861 35.9511 80.2861 34.6848C80.2861 31.9213 79.8781 29.2502 79.1199 26.7369L79.1699 26.9332C76.9492 22.0606 72.5461 18.5235 67.2424 17.5344L67.1423 17.519C66.0031 17.2842 64.6752 17.1264 63.3204 17.0879H63.2858H63.2396C61.8579 17.1148 60.53 17.2688 59.2445 17.5421L59.3831 17.519C53.987 18.5351 49.5916 22.0721 47.3978 26.8293L47.3554 26.9332C46.6395 29.2425 46.2277 31.8982 46.2277 34.6463C46.2277 35.928 46.3162 37.1904 46.4894 38.422L46.474 38.2796C45.8621 38.3489 45.3887 38.8608 45.3887 39.4843V39.5112L45.9737 46.9433C46.0276 47.7978 46.6126 48.3135 47.2438 48.2443L47.2477 48.2327Z" fill="#F7DECE"/>
<path d="M104.547 97.4219C104.278 85.7214 103.108 83.0734 102.476 81.2798C102.226 80.5601 102.022 75.6952 93.9859 72.5391C89.0594 70.5993 82.7011 70.5608 77.3204 68.2861V74.6136C77.3089 81.4184 72.4362 87.08 65.9894 88.3155L65.9009 88.3309C65.7816 89.0314 65.1812 89.5548 64.4615 89.5625H64.3922V94.3351C64.3922 98.9999 68.1717 102.779 72.8365 102.779C77.5013 102.779 81.2809 98.9999 81.2809 94.3351V91.002C78.9408 90.6517 77.1665 88.658 77.1665 86.2487C77.1665 83.5968 79.318 81.4453 81.9698 81.4453C84.6217 81.4453 86.7732 83.5968 86.7732 86.2487C86.7732 88.3501 85.4222 90.136 83.544 90.7903L83.5094 90.8019V94.3351V94.516C83.5094 100.412 78.7291 105.193 72.8327 105.193C66.9363 105.193 62.156 100.412 62.156 94.516C62.156 94.4505 62.156 94.389 62.156 94.3235V94.3312V89.5163C61.4709 89.4701 60.9167 88.9544 60.8089 88.2924V88.2847C54.3044 87.0184 49.4548 81.376 49.4394 74.5982V68.2207C44.0357 70.5416 37.6389 70.5877 32.6854 72.5314C24.6259 75.6836 24.4412 80.537 24.1949 81.2683C23.5791 83.0695 22.3936 85.706 22.1242 97.4142C22.078 98.9537 22.1242 101.313 26.7659 103.376C36.873 107.34 49.8936 108.572 62.7295 109.457H63.9611C76.8239 108.58 89.8253 107.352 99.9247 103.376C104.547 101.325 104.589 98.9768 104.547 97.4219ZM48.0423 92.6493H43.2466V97.4642H39.8212V92.6647H35.0255V89.2392H39.8212V84.4436H43.2466V89.2392H48.0423V92.6493Z" fill="#577CFF"/>
<path d="M84.5673 86.2074C84.5673 84.7756 83.4088 83.6133 81.977 83.6133C80.5452 83.6133 79.3867 84.7718 79.3867 86.2036C79.3867 87.6353 80.5452 88.7938 81.977 88.7938C83.4049 88.7938 84.5634 87.6353 84.5673 86.2074Z" fill="black"/>
<defs>
<linearGradient id="paint0_linear_4741_2362" x1="62.8325" y1="0" x2="62.8325" y2="125.665" gradientUnits="userSpaceOnUse">
<stop stop-color="#AFC1DC"/>
<stop offset="1" stop-color="#E2E5ED"/>
</linearGradient>
</defs>
</svg>
